polaris-icons/icons/newicons/AnalyticsDonutMinor.svg

<svg width="20" height="20" viewBox="0 0 20 20" fill="none" xmlns="http://www.w3.org/2000/svg">
<path fill-rule="evenodd" clip-rule="evenodd" d="M18.4412 9.00246C18.5061 9.55093 18.0523 10.0002 17.5 10.0002H13C12.9999 11.6569 11.6568 13 10 13C8.34315 13 7 11.6569 7 10C7 8.34315 8.34315 7 10 7V4.00002C6.68629 4.00002 4 6.68631 4 10C4 13.3137 6.68629 16 10 16C13.3137 16 15.9999 13.3138 16 10.0002L17.5 10.0002C17.4999 14.1422 14.1421 17.5 10 17.5C5.85786 17.5 2.5 14.1422 2.5 10C2.5 5.85788 5.85786 2.50002 10 2.50002C10 1.94773 10.4492 1.49409 10.9977 1.55892C11.7713 1.65035 12.5302 1.84788 13.2528 2.14719C14.2841 2.57435 15.2211 3.20046 16.0104 3.98976C16.7997 4.77905 17.4258 5.71609 17.853 6.74735C18.1523 7.46994 18.3498 8.22888 18.4412 9.00246ZM16.8374 8.50016C16.7492 8.09805 16.6255 7.70354 16.4672 7.32138C16.1154 6.4721 15.5998 5.70043 14.9497 5.05042C14.2997 4.40041 13.5281 3.88479 12.6788 3.53301C12.2966 3.37471 11.9021 3.25098 11.5 3.16277V7.1735C11.7804 7.32228 12.0375 7.5122 12.2627 7.73742C12.488 7.96264 12.6779 8.21981 12.8267 8.50016H16.8374ZM10 11.5C9.17157 11.5 8.5 10.8284 8.5 10C8.5 9.17157 9.17157 8.5 10 8.5C10.8284 8.5 11.5 9.17157 11.5 10C11.5 10.8284 10.8284 11.5 10 11.5Z" fill="black"/>
</svg>

<svg viewBox="0 0 20 20" fill="none" xmlns="http://www.w3.org/2000/svg"><path fill-rule="evenodd" clip-rule="evenodd" d="M18.441 9.002c.065.549-.389.998-.941.998h-4.5a3 3 0 1 1-3-3v-3a6 6 0 1 0 6 6h1.5a7.5 7.5 0 1 1-7.5-7.5c0-.552.45-1.006.998-.941a8.5 8.5 0 0 1 7.443 7.443Zm-1.604-.502a6.998 6.998 0 0 0-5.337-5.337v4.01a3.199 3.199 0 0 1 1.327 1.327h4.01Zm-6.837 3a1.5 1.5 0 1 1 0-3 1.5 1.5 0 0 1 0 3Z" fill="#5C5F62"/></svg>
